X: 13740
T: Forest-in-Teesdale
R: slip jig
M: 9/8
K: Gmajor
|:G2D G2A BAG|A2G ABd B2d|e2g edB d2e|g2e BAG E3|
G2D G2A BAG|A2G ABd B2d|e2g ede g2B|A2B AGE G3:|
|:g2b agf g2e|d2g edB d2g|e2a a2b a2g|e2a a2b age|
g2b agf g2e|d2g edB d3|e2g ede g2B|1 A2B AGE G2d:|2 A2B AGE G3||

